X:14446
T:Rond a Ploeuc
D:transcribed from CD "Sonneurs de Vielle en Bretagne" SCM 024
Z:abc transcription Simon Wascher
N:please mail errors to simon.wascher@chello.at
M:2/4
L:1/8
K:G
GB|d2e2|d2Bd|cB Ac|BA GB|
d2e2|d2 Bd|cB AB|G2:|
GB|GB GB|A2 Ac|Ac Ac|B2 GB|
GB GB|A2 FA|FA FA|G2:|
